svgs/light/chart-line-down.svg

<svg xmlns="http://www.w3.org/2000/svg" viewBox="0 0 512 512"><!-- Font Awesome Pro 6.0.0-alpha2 by @fontawesome - https://fontawesome.com License - https://fontawesome.com/license (Commercial License) --><path d="M496 448H80C53.531 448 32 426.469 32 400V48C32 39.156 24.844 32 16 32S0 39.156 0 48V400C0 444.125 35.875 480 80 480H496C504.844 480 512 472.844 512 464S504.844 448 496 448ZM212.688 299.312C218.938 305.562 229.063 305.562 235.312 299.312L320 214.625L425.375 320H336C327.156 320 320 327.156 320 336S327.156 352 336 352H464C472.844 352 480 344.844 480 336V208C480 199.156 472.844 192 464 192S448 199.156 448 208V297.375L331.312 180.688C325.062 174.438 314.937 174.438 308.688 180.688L224 265.375L123.312 164.688C117.062 158.438 106.937 158.438 100.688 164.688S94.438 181.063 100.688 187.312L212.688 299.312Z"/></svg>

<svg xmlns="http://www.w3.org/2000/svg" viewBox="0 0 512 512"><!--! Font Awesome Pro 6.4.0 by @fontawesome - https://fontawesome.com License - https://fontawesome.com/license (Commercial License) Copyright 2023 Fonticons, Inc. --><path d="M32 48c0-8.8-7.2-16-16-16S0 39.2 0 48V400c0 44.2 35.8 80 80 80H496c8.8 0 16-7.2 16-16s-7.2-16-16-16H80c-26.5 0-48-21.5-48-48V48zM320 336c0 8.8 7.2 16 16 16H464c8.8 0 16-7.2 16-16V208c0-8.8-7.2-16-16-16s-16 7.2-16 16v89.4L331.3 180.7c-6.2-6.2-16.4-6.2-22.6 0L224 265.4 123.3 164.7c-6.2-6.2-16.4-6.2-22.6 0s-6.2 16.4 0 22.6l112 112c6.2 6.2 16.4 6.2 22.6 0L320 214.6 425.4 320H336c-8.8 0-16 7.2-16 16z"/></svg>
